X: 6
T:Viggen
M:C|
L:1/8
Q:592
C:anon.
R:Polka
O:Sweden, Norway or USA
Z:Transcribed by Frank Nordberg - http://www.musicaviva.com
K:C
GFW|:"C"E2G2c2E2|"C"G4 z2 AG|"F"F2A2c2F2|"F"A4 z2 AA|
"G"G2B2d2e2|"G"f3ed2c2|"G"B2G2A2B2|"C"c2ecG2GF|
"C"E2G2c2E2|"C"G4 z2 AG|"F"F2A2c2F2|"F"A4 z2 AA|
"G"G2B2d3e|"G"f3ed2c2|"G"B2G2A2B2|"C"c4 "Fine"z4||
|:"C"e2 ee .e2 .e2|"C"e2 d2 c2 B2|"F"A3F.F2.F2|"F"F2 z2z4|
"G"GBdB GBdB|"G"GBdB GBdB|"G"G2^FG.A2.G2|"C"E4 z4|
"C"e2 ee .e2 .e2|"C"e2 d2 c2 B2|"F"A3F.F2.F2|"F"F2z2z4|
"G"GBdB GBdB|"G"GBdB GBdB|"G"G2^FG.A2.B2|[1"C"c4 z4:|[2"C"c4 z2 GF||
|:"C"EGcG EGcG|"C"EGcG EGcG|"F"FAcA FAcA|"F"FAcA FAcA|
"G"GBdB GBdB|"G"GBdB GBdB|"G"G2^FG.A2.G2|"C"E4 z2 GF|
"C"EGcG EGcG|"C"EGcG EGcG|"F"FAcA FAcA|"F"FAcA FAcA|
"G"GBdB GBdB|"G"GBdB GBdB|"G"G2^FG.A2.B2|"C"c4 z2 "D.S."GF:|
W:
W: From "Falaleiro" http://home.t-online.de/home/pheld/homepage.htm

